X:6003
T:Shevchyk
O:england
H:V. Verkhovynets
S:A. Humenyuk
Q:144
M:2/4
L:1/8
K:G
B d d d | B d d d | A B c c | B2 G2 |:\
B A G F | E D D2 | D c B A | G2 G z :|


